X:1
T:Fight the Good Fight
T:Fight the Good Fight
T:John Bunyan Herbert
T:J. Bidlake Habington, 1907
T:Public Domain Courtesy of the Cyber Hymnal™
T:Public Domain Courtesy of the Cyber Hymnal™
C:John Bunyan Herbert
Z:Public Domain
Z:Courtesy of the Cyber Hymnal™
%%score ( 1 2 ) ( 3 4 )
L:1/8
Q:1/4=110
M:6/8
K:A
V:1 treble 
V:2 treble 
V:3 bass 
V:4 bass 
V:1
 E | A2 B A2 F | E3 [CA]2 [DB] | [Ec]2 [Fd] [Ec]2 [DB] | [CA]3- [CA]2 [EG] | %5
w: 1.~We|soon shall see the|day When our|toils and cares shall|cease; * When|
w: 2.~This|hope sup- ports us|here, And it|makes our bur- dens|light; * ’Twill|
w: 3.~Then,|of the prize pos-|sessed, We of|wars shall hear no|more; * But|
 [DF]2 [D^E] [DF]2 [DG] | [DA]2 [DG] [DA]2 [DB] | [^Dc]2 [DB] [DB]2 [Dc] | B6 || %9
w: we shall cast our|arms a- way, And|dwell in end- less|peace:|
w: serve our droop- ing|hearts to cheer, Till|faith shall end in|sight:|
w: ev- er with our|lead- er rest On|yon- der peace- ful|shore:|
"^Refrain" [CE]3 [DF]3 | [CE]3 [CA]2 [DB] | [Ec]2 [Ec] [Fd]3 | [Ec]3- [Ec]2 z | [EB]3 [Ec]3 | %14
w: |||||
w: If, like|Paul, we shall|fight the good|fight; *|If, like|
w: |||||
 [EB]3 [EB]2 [FA] | [EG][^DF]E [CF]2 [DB] | E3- E2 z | E[EF][EG] (AB)[Ac] | [Gd]3- [Gd]2 [GB] | %19
w: |||||
w: Paul, we lay|hold on e- ter- nal|life; *|We shall re- ceive * a|crown, * A|
w: |||||
 [ce]3- [ce]2 [Bd] | [Ac]2 [EB] [EA]3 | [FA]2 [FA] [FA]2 [FA] | [DB]2 [DA] [DG]2 [DF] | %23
w: ||||
w: crown * of|right- eous- ness,|Which the Lord, the|right- eous Judge, Shall|
w: ||||
 [CE] [EA]2 [EB]3 | [EA]3- [EA]2 |] %25
w: ||
w: give us that|day. *|
w: ||
V:2
 E | A2 B A2 F | E3 x3 | x6 | x6 | x6 | x6 | x6 | (E3 D3) || x6 | x6 | x6 | x6 | x6 | x6 | %15
 x2 E x3 | E3- E2 x | E x E2 x2 | x6 | x6 | x6 | x6 | x6 | x6 | x5 |] %25
V:3
 E, | A,2 B, A,2 F, | E,3 [A,,E,]2 [A,,E,] | [A,,A,]2 [A,,A,] [A,,A,]2 [A,,E,] | %4
w: ~|~ ~ ~ ~|~ ~ ~|~ ~ ~ ~|
 [A,,E,]3- [A,,E,]2 [C,A,] | [D,A,]2 [D,B,] [D,A,]2 [D,G,] | [D,F,]2 [D,^E,] [D,F,]2 [D,F,] | %7
w: ~ * ~|~ ~ ~ ~|~ ~ ~ ~|
 [B,,F,]2 [B,,F,] [B,,A,]2 [B,,A,] | [E,G,]6 || [A,,A,]3 [A,,A,]3 | [A,,A,]3 [A,,E,]2 [A,,E,] | %11
w: ~ ~ ~ ~|~|~ ~|~ ~ ~|
 [A,,A,]2 [A,,A,] [D,A,]3 | [A,,A,]3- [A,,A,]2 z | [E,G,]3 [E,A,]3 | [E,G,]3 [G,,B,]2 [A,,C] | %15
w: ~ ~ ~|~ *|~ ~|~ ~ ~|
 [B,,B,][B,,A,][B,,G,] [B,,A,]2 [B,,A,] | [E,G,]3- [E,G,]2 z | [E,G,][E,A,][E,B,] (CB,)[E,A,] | %18
w: ~ ~ ~ ~ ~|~ *|~ ~ ~ ~ * ~|
 [E,B,]2 [E,E] [E,E]3- | [E,E]2 [E,E] E2 [G,E] | [A,E]2 [A,D] [A,C]3 | [D,D]2 [D,D] [D,D]2 [D,D] | %22
w: a crown, *|* a crown of|||
 [D,F,]2 [D,F,] [D,B,]2 [D,A,] | [E,A,] [E,C]2 [E,D]3 | [A,,C]3- [A,,C]2 |] %25
w: |||
V:4
 E, | A,2 B, A,2 F, | E,3 x3 | x6 | x6 | x6 | x6 | x6 | x6 || x6 | x6 | x6 | x6 | x6 | x6 | x6 | %16
 x6 | x3 E,2 x | x6 | x3 (E,F,) x | x6 | x6 | x6 | x6 | x5 |] %25

